Sources/FrostedUI/Resources/Icons.xcassets/calendarPlusSize32.imageset/calendar-plus-size-32.svg

<svg
  width="32"
  height="32"
  viewBox="0 0 32 32"
  fill="none"
  xmlns="http://www.w3.org/2000/svg"
  data-fui-icon="true"
>
  <path
    d="M10.3333 6.33329H7.66667C6.19391 6.33329 5 7.5272 5 8.99996V12.3333M10.3333 6.33329H21.6667M10.3333 6.33329V3.66663M5 12.3333V24.3333C5 25.8061 6.19391 27 7.66667 27H15M5 12.3333H27M21.6667 6.33329H24.3333C25.8061 6.33329 27 7.5272 27 8.99996V12.3333M21.6667 6.33329V3.66663M27 12.3333V15M23.6667 19.6666V24M23.6667 24V28.3333M23.6667 24H19.3333M23.6667 24H28"
    stroke="currentColor"
    stroke-width="1.5"
    stroke-linecap="round"
    stroke-linejoin="round"
  />
</svg>

<svg xmlns="http://www.w3.org/2000/svg" width="32" height="32" fill="none" data-fui-icon="true" viewBox="0 0 32 32"><path stroke="currentColor" stroke-linecap="round" stroke-linejoin="round" stroke-width="1.5" d="M10.333 6.333H7.667A2.667 2.667 0 0 0 5 9v3.333m5.333-6h11.334m-11.334 0V3.667M5 12.333v12A2.667 2.667 0 0 0 7.667 27H15M5 12.333h22m-5.333-6h2.666A2.667 2.667 0 0 1 27 9v3.333m-5.333-6V3.667M27 12.333V15m-3.333 4.667V24m0 0v4.333m0-4.333h-4.334m4.334 0H28"/></svg>
